X: 877
T: Come west along the road
C: anon.
O: Ireland
B: Francis O'Neill: "The Dance Music of Ireland" (1907) no. 793
R: Reel
Z: Transcribed by Frank Nordberg - http://www.musicaviva.com
F: http://www.musicaviva.com/abc/tunes/ireland/oneill-1001/oneill-1001-079
3.abc
M: C|
L: 1/8
K: G
d2BG dGBG|G2 (3(Bcd) efg(e|d2)BG dGBG|ABc(d ed)ce|d2(BG) dGBG|G2(3(Bcd) e
fg(e|d2)BG dGBG|ABc(d ed)Bd||
g2(bg) egd(g|(3efg) d(g ed)Bd|g2(bg) egdB|BAB(d ed)Bd|g2(bg) egd(g|(3efg)
 d(g ed)Bd|gab(g ef)ge|d(ega) bage|]
W:
W:
W: From Musica Viva - http://www.musicaviva.com
W: the Internet center for free sheet music downloads.


